X:1
T:Miss MacIntosh’s Reel
M:C|
L:1/8
R:Reel
B:MacIntyre  –  Collection of Slow Airs, Reels & Strathspeys (1794)
Z:AK/Fiddler’s Companion
K:F
A|F/F/F Ac dGGA|F/F/F Ac defg|aefA GABd|c/c/c ag fFF:|
|:a|facA GABd|c/c/c fg agfa|gafA GABd|c/c/c ag fFF:|]

